!!!CDT:
!!!PTL: Il primo libro de madrigali a sei voci
!!!PPP: Venice
!!!PPR: Angelo Gardano
!!!PDT: 1590
!!!PUB-format:
!!!RISM: M 1503
!!!rime: 60
!!!AGN: Madrigal
!!!SCT: Trm0060a
!!!SCA: Trm0060a
!!!original-voices: 6
!!!extant-voices: 2
!!!complete: N
!!!final: A
!!!COM: Mazza, Francesco
!!!OTL: Lunge da voi, mio core
**kern	**text	**kern	**text
*part2	*part2	*part1	*part1
*staff2	*staff2	*staff1	*staff1
*I"Quinto	*	*I"Tenore	*
*I'V	*	*I'T	*
*oclefC3	*	*oclefC3	*
*clefGv2	*	*clefGv2	*
*k[]	*	*k[]	*
*omet(C)	*	*omet(C)	*
*M4/2	*	*M4/2	*
=1	=1	=1	=1
0r	.	0r	.
=2	=2	=2	=2
2e	Lun-	0r	.
4A	-ge	.	.
4a	da	.	.
4g	voi,	.	.
4e	mio	.	.
4.a	co-	.	.
8g	.	.	.
=3	=3	=3	=3
2f	.	2A	Lun-
2e	-re,	4c	-ge
.	.	4c	da
1r	.	4d	voi,
.	.	4e	mio
.	.	2c	co-
=4	=4	=4	=4
2r	.	1c	-re,
2.e	Mil-	.	.
.	.	1r	.
4d	-le	.	.
2d	vol-	.	.
=5	=5	=5	=5
2e	-te	2r	.
2e	m'uc-	2.c	Mil-
1d	-ci-	.	.
.	.	4B	-le
.	.	2B	vol-
=6	=6	=6	=6
1G	-de	2c	-te
.	.	2g	m'uc-
2r	.	2.g	-ci-
2d	il	.	.
.	.	4f	.
=7	=7	=7	=7
2.c	mio	4e	.
.	.	4d	.
.	.	2e	.
4B	.	.	.
2A	.	2d	-de il
2A	do-	[2d	mio
=8	=8	=8	=8
0e	-lo-	2d]	.
.	.	2c	do-
.	.	1B	-lo-
=9	=9	=9	=9
1e	-re.	2A	-re.
.	.	2r	.
1r	.	1r	.
=10	=10	=10	=10
0r	.	0r	.
=11	=11	=11	=11
0r	.	2r	.
.	.	2e	Mi
.	.	1g	tol-
=12	=12	=12	=12
0r	.	2f	-se
.	.	1e	l'al-
.	.	2d	.
=13	=13	=13	=13
2r	.	1e	-ma;
2e	e	.	.
4f	s'io	1r	.
4f	ri-	.	.
4e	-pen-	.	.
4c	-so in	.	.
=14	=14	=14	=14
2d	le-	2r	.
2c	-i	4r	.
.	.	4e	e
1r	.	4f	s'io
.	.	4f	ri-
.	.	4e	-pen-
.	.	4c	-so in
=15	=15	=15	=15
0r	.	2d	le-
.	.	2c	-i
.	.	1r	.
=16	=16	=16	=16
2r	.	0r	.
1g	Mi	.	.
2f	ri-	.	.
=17	=17	=17	=17
1e	-to-	1r	.
2e	-glie	[1A	Mi
2d	la	.	.
=18	=18	=18	=18
1.c	vi-	2A]	.
.	.	2B	ri-
.	.	1c	-to-
2B	.	.	.
=19	=19	=19	=19
4.A	.	2c	-glie
8G	.	.	.
2F	.	2c	la
1G	-ta,	1c	vi-
=20	=20	=20	=20
1r	.	2c	-ta,
.	.	2c	E
2r	.	4c	tut-
.	.	4d	-ti
2c	E	4e	so-
.	.	4f	-no
=21	=21	=21	=21
4c	tut-	1.g	mor-
4d	-ti	.	.
4e	so-	.	.
4e	-no-	.	.
2d	-mor-	.	.
2d	-ti	2G	-ti i
=22	=22	=22	=22
4r	.	2G	pen-
4G	i	.	.
4B	pen-	2g	-sier
4B	-sier	.	.
2A	mie-	2e	mie-
2B	-i.	2e	-i.
=23	=23	=23	=23
0r	.	2r	.
.	.	1e	Oh
.	.	2f	mi-
=24	=24	=24	=24
0r	.	1e	-se-
.	.	2e	-ria in-
.	.	2e	-fi-
=25	=25	=25	=25
1r	.	2.c	-ni-
.	.	4B	.
2r	.	2A	.
4r	.	2B	-ta!
4e	È	.	.
=26	=26	=26	=26
4e	quel	0r	.
4c	fe-	.	.
2d	-li-	.	.
2e	-ce	.	.
4f	ch'u-	.	.
[4a	-na	.	.
=27	=27	=27	=27
4a]	.	0r	.
2g	vol-	.	.
4f	-ta	.	.
1e	muo-	.	.
=28	=28	=28	=28
1e	-re,	2r	.
.	.	4r	.
.	.	4e	È
4r	.	4e	quel
4c	È	4f	fe-
4d	quel	2g	-li-
4G	fe-	.	.
=29	=29	=29	=29
4c	-li-	2a	-ce
4A	-ce	.	.
2e	ch'u-	2g	ch'u-
2A	-na	2f	-na
[2c	vol-	4g	vol-
.	.	4f	.
=30	=30	=30	=30
4c]	.	4e	.
4d	.	4d	.
4e	.	1c	.
4f	.	.	.
2g	.	.	.
2G	-ta,	2e	-ta
=31	=31	=31	=31
*	*	*lig	*
4.d	ch'u-	1A	muo-
8d	-na	.	.
2.d	vol-	.	.
.	.	1e	.
*	*	*Xlig	*
4c	-ta	.	.
2B	muo-	.	.
=32	=32	=32	=32
0Al	-re.	0el	-re.
==	==	==	==
*-	*-	*-	*-
!!!system-decoration: [*]
!!!RDF**kern: i = editorial accidental
!!!RDF**kern: l = terminal long
!!!ENC: Emiliano Ricciardi
!!!END: 2018
!!!EED: Ricciardi, Emiliano
!!!EEV: 2018/09/18
!!!YEC: Copyright 2018 Emiliano Ricciardi, All Rights Reserved
!!!ONB: Translated from MusicXML on 2018/09/18 and edited by Craig Stuart Sapp
!!@@BEGIN:	VERSEDATA
!!@SOLERTI:	60
!!@CATALOGNUM:	Trm0060
!!@LAST_MODIFIED: 2020/07/12
!!@TITLE:		Lunge da voi, mio core
!!@GENRE:		madrigale
!!@MANUSRC:	C, V<sub>8</sub>
!!@PRINTSRC:	27, 48, 70, 141, 145, 166, 169
!!@@BEGIN:	VERSES
!!@ABOUTIT:	Dice di morir mille volte mentre è lontano da la sua donna: però chiama felice chi muore una sola.
!!@ABOUTEN:	He says he dies a thousand times when away from his lady, but he calls happy [the man] who dies only once.
!!@EDITOR:	Solerti, Angelo
!!@EDITION_TITLE: Le Rime di Torquato Tasso
!!@EDITION_LOC:	Bologna
!!@EDITION_PUB:	Romagnoli-Dall’Acqua
!!@EDITION_DATE:  1898-1902
!!@EDITION_VOL:	2
!!@EDITION_PAGE:  87
!!@TRANSLATOR:	Maria Pastore Passaro; adapted by Emiliano Ricciardi and Amyrose McCue Gill
!!@TRANSLATION_TITLE: Rhymes of Love
!!@TRANSLATION_LOC: Mineola, NY
!!@TRANSLATION_PUB: Legas
!!@TRANSLATION_DATE: 2011
!!@TRANSLATION_PAGE: 68-69
!!@VERSE:
!!	Lunge da voi, mio core,
!!	Mille volte m'uccide il mio dolore.
!!	Perché la mia partita
!!	Mi tolse l'alma; e s'io ripenso in lei
!!	Mi ritoglie la vita,
!!	E tutti sono morti i pensier miei.
!!	Oh miseria infinita!
!!	È quel felice ch'una volta muore.
!!@TVERSE:
!!	Far from you, my heart,
!!	A thousand times my sorrow kills me.
!!	Because my departure
!!	Took my soul from me; and if I think of her again,
!!	It takes once more my life,
!!	And all my thoughts are dead.
!!	O infinite misery!
!!	He is happy who dies but once.
!!@@END:		VERSES
!!@OTHER_CRIT_ED:   Torquato Tasso, <i>Rime d’amore (secondo il codice
!!		Chigiano L VIII 302)</i>, eds. Franco Gavazzeni and
!!		Vercingetorige Martignone, vol. 4 of <i>Edizione
!!		Nazionale delle opere di Torquato Tasso</i>
!!		(Alessandria: Edizioni Dell’Orso, 2004), 44.
!!@ATTRIBUTION_ABOUT:	Secure
!!		<br>
!!		This poem appears in the autograph Chigiano
!!		L.VIII.302 (Biblioteca Vaticana, Rome), compiled
!!		around 1584&ndash;85 (see Literary Sources).
!!@DATING:
!!@DEDICATEE:	Bendidio, Lucrezia
!!@COMMENTARY:
!!@@END:		VERSEDATA
!!@@BEGIN:	SETTING
!!@CATALOGNUM:	Trm0060a
!!@RIMETITLE:	Lunge da voi, mio core
!!@SOLERTI:	60
!!@COMPOSER:	Mazza, Francesco
!!@PRINCEPSTITLE:	Il primo libro de madrigali a sei voci
!!@PRINCEPSLOC:	Venetia
!!@NORMLOC:	Venice
!!@NORMPUB:	Angelo Gardano
!!@NORMPUBSHORT:	Gardano
!!@PRINCEPSPUB:	Gardano
!!@PRINCEPSYEAR:	1590
!!@PRINCEPSRISM:	M 1503
!!@REPRINTS:	
!!@OVOICES:	6
!!@EXTANTVOICES:	2
!!@PARTBOOKS:	
!!@EXTPARTBOOKS:	
!!@OCLEFS:	C3,C3
!!@OMENSURATION:	C
!!@OKEYSIG:	-
!!@FINAL:	A
!!@TIMPEDITOR:	Ricciardi, Emiliano
!!@NOTE:		
!!@@END:		SETTING
